; HEADER_BLOCK_START
; generated by OrcaSlicer 2.3.1 on 2025-11-13 at 10:02:27
; total layer number: 150
; filament_density: 8.02
; filament_diameter: 1.75
; max_z_height: 15.00
; HEADER_BLOCK_END

; external perimeters extrusion width = 5.00mm
; perimeters extrusion width = 5.00mm
; infill extrusion width = 5.00mm
; solid infill extrusion width = 5.00mm
; top infill extrusion width = 5.00mm
; first layer extrusion width = 5.00mm

; EXECUTABLE_BLOCK_START
EXCLUDE_OBJECT_DEFINE NAME=SlicerTest.STEP_id_0_copy_0 CENTER=0,0 POLYGON=[[-25,-25],[25,-25],[25,25],[-25,25],[-25,-25]]
M73 P0 R111
;TYPE:Custom
G90
G21
M83 ; use relative distances for extrusion
; Filament gcode
M106 S0
;LAYER_CHANGE
;Z:0.1
;HEIGHT:0.1
;START_LAYER_CHANGE
;AFTER_LAYER_CHANGE
;0.1
;_SET_FAN_SPEED_CHANGING_LAYER
SET_VELOCITY_LIMIT ACCEL=500 ACCEL_TO_DECEL=250
; printing object SlicerTest.STEP id:0 copy 0
G1 E-.8 F1800
EXCLUDE_OBJECT_START NAME=SlicerTest.STEP_id_0_copy_0
G1 X12.532 Y12.532 F21000
G1 Z.1
G1 Z.1
G1 E.8 F1800
;TYPE:Inner wall
;WIDTH:5
G1 F3000
G1 X-12.532 Y12.532 E4.80401
G1 X-12.532 Y-12.532 E4.80401
G1 X12.532 Y-12.532 E4.80401
G1 X12.532 Y12.032 E4.70818
G1 E-.8 F1800
G1 X17.511 Y15.469 F21000
G1 E.8 F1800
G1 F3000
G1 X17.511 Y17.511 E.39138
G1 X-17.511 Y17.511 E6.71245
G1 X-17.511 Y-17.511 E6.71245
G1 X17.511 Y-17.511 E6.71245
G1 X17.511 Y14.969 E6.22524
G1 E-.8 F1800
G1 X22.5 Y15.469 F21000
G1 E.8 F1800
;TYPE:Outer wall
G1 F3000
G1 X22.5 Y22.5 E1.34766
G1 X-22.5 Y22.5 E8.62501
G1 X-22.5 Y-22.5 E8.62501
G1 X22.5 Y-22.5 E8.62501
G1 X22.5 Y14.969 E7.18152
M73 P0 R110
G1 E-.8 F1800
G1 X12.283 Y-2.039 F21000
G1 E.8 F1800
;TYPE:Bottom surface
;WIDTH:5.08523
G1 F6300
G1 X4.28 Y-10.043 E2.20662
G1 X-2.882 Y-10.043 E1.39607
G1 X10.043 Y2.882 E3.56331
G1 X10.043 Y10.043 E1.39606
G1 X-10.043 Y-10.043 E5.53761
G1 X-10.043 Y-2.882 E1.39607
G1 X2.882 Y10.043 E3.56327
G1 X-4.28 Y10.043 E1.39607
G1 X-12.283 Y2.039 E2.20658
; stop printing object SlicerTest.STEP id:0 copy 0
;LAYER_CHANGE
;Z:0.2
;HEIGHT:0.1
;START_LAYER_CHANGE
EXCLUDE_OBJECT_END NAME=SlicerTest.STEP_id_0_copy_0
;AFTER_LAYER_CHANGE
;0.2
;_SET_FAN_SPEED_CHANGING_LAYER
SET_VELOCITY_LIMIT ACCEL=5000 ACCEL_TO_DECEL=2500
M140 S100 ; set bed temperature
; printing object SlicerTest.STEP id:0 copy 0
SET_VELOCITY_LIMIT ACCEL=7000 ACCEL_TO_DECEL=3500
G1 E-.8 F1800
EXCLUDE_OBJECT_START NAME=SlicerTest.STEP_id_0_copy_0
G1 X12.532 Y12.532 Z.2 F21000
G1 E.8 F1800
SET_VELOCITY_LIMIT ACCEL=5000 ACCEL_TO_DECEL=2500
;TYPE:Inner wall
;WIDTH:5
G1 F12000
G1 X-12.532 Y12.532 E4.80401
G1 X-12.532 Y-12.532 E4.80401
G1 X12.532 Y-12.532 E4.80401
G1 X12.532 Y12.032 E4.70818
SET_VELOCITY_LIMIT ACCEL=7000 ACCEL_TO_DECEL=3500
G1 E-.8 F1800
M73 P1 R110
G1 X14.063 Y17.511 F21000
G1 E.8 F1800
SET_VELOCITY_LIMIT ACCEL=5000 ACCEL_TO_DECEL=2500
G1 F12000
G1 X-17.511 Y17.511 E6.05154
G1 X-17.511 Y-17.511 E6.71245
G1 X17.511 Y-17.511 E6.71245
G1 X17.511 Y17.511 E6.71245
G1 X14.563 Y17.511 E.56508
SET_VELOCITY_LIMIT ACCEL=7000 ACCEL_TO_DECEL=3500
G1 E-.8 F1800
G1 X14.063 Y22.5 F21000
G1 E.8 F1800
SET_VELOCITY_LIMIT ACCEL=3000 ACCEL_TO_DECEL=1500
;TYPE:Outer wall
G1 F7200
G1 X-22.5 Y22.5 E7.00782
G1 X-22.5 Y-22.5 E8.62501
G1 X22.5 Y-22.5 E8.62501
G1 X22.5 Y22.5 E8.62501
G1 X14.563 Y22.5 E1.52136
M73 P1 R109
SET_VELOCITY_LIMIT ACCEL=7000 ACCEL_TO_DECEL=3500
G1 E-.8 F1800
G1 X8.426 Y7.701 F21000
G1 E.8 F1800
SET_VELOCITY_LIMIT ACCEL=5000 ACCEL_TO_DECEL=2500
;TYPE:Internal solid infill
;WIDTH:4.27146
G1 F12000
G1 X7.895 Y7.701 E.08692
G1 X7.629 Y8.161 E.08692
G1 X7.895 Y8.621 E.08692
G1 X8.426 Y8.621 E.08692
G1 X8.442 Y8.594 E.00511
SET_VELOCITY_LIMIT ACCEL=7000 ACCEL_TO_DECEL=3500
G1 X12.283 Y-1.616 F21000
SET_VELOCITY_LIMIT ACCEL=5000 ACCEL_TO_DECEL=2500
;WIDTH:5.24893
G1 F12000
G1 X.624 Y10.043 E3.31828
G1 X-6.768 Y10.043 E1.4878
G1 X10.043 Y-6.768 E4.78471
G1 X10.043 Y-10.043 E.65898
G1 X5.925 Y-10.043 E.82881
G1 X-10.043 Y5.925 E4.54453
G1 X-10.043 Y-1.468 E1.4878
G1 X.772 Y-12.283 E3.0781
SET_VELOCITY_LIMIT ACCEL=7000 ACCEL_TO_DECEL=3500
G1 X-8.142 Y-8.868 F21000
SET_VELOCITY_LIMIT ACCEL=5000 ACCEL_TO_DECEL=2500
;WIDTH:4.27146
G1 F12000
G1 X-8.673 Y-8.868 E.08692
G1 X-8.939 Y-8.408 E.08692
G1 X-8.673 Y-7.948 E.08692
G1 X-8.142 Y-7.948 E.08692
G1 X-8.127 Y-7.975 E.00511
; stop printing object SlicerTest.STEP id:0 copy 0
;LAYER_CHANGE
;Z:0.3
;HEIGHT:0.1
;START_LAYER_CHANGE
EXCLUDE_OBJECT_END NAME=SlicerTest.STEP_id_0_copy_0
;AFTER_LAYER_CHANGE
;0.3
;_SET_FAN_SPEED_CHANGING_LAYER
; printing object SlicerTest.STEP id:0 copy 0
SET_VELOCITY_LIMIT ACCEL=7000 ACCEL_TO_DECEL=3500
G1 E-.8 F1800
EXCLUDE_OBJECT_START NAME=SlicerTest.STEP_id_0_copy_0
G1 X-12.532 Y-12.532 Z.3 F21000
G1 E.8 F1800
SET_VELOCITY_LIMIT ACCEL=5000 ACCEL_TO_DECEL=2500
;TYPE:Inner wall
;WIDTH:5
G1 F12000
G1 X12.532 Y-12.532 E4.80401
G1 X12.532 Y12.532 E4.80401
G1 X-12.532 Y12.532 E4.80401
G1 X-12.532 Y-12.032 E4.70818
SET_VELOCITY_LIMIT ACCEL=7000 ACCEL_TO_DECEL=3500
G1 E-.8 F1800
G1 X-17.511 Y-17.511 F21000
G1 E.8 F1800
SET_VELOCITY_LIMIT ACCEL=5000 ACCEL_TO_DECEL=2500
G1 F12000
G1 X17.511 Y-17.511 E6.71245
G1 X17.511 Y17.511 E6.71245
G1 X-17.511 Y17.511 E6.71245
G1 X-17.511 Y-17.011 E6.61662
M73 P2 R109
SET_VELOCITY_LIMIT ACCEL=7000 ACCEL_TO_DECEL=3500
G1 E-.8 F1800
G1 X-22.5 Y-22.061 F21000
G1 E.8 F1800
SET_VELOCITY_LIMIT ACCEL=3000 ACCEL_TO_DECEL=1500
;TYPE:Outer wall
G1 F7200
G1 X-22.5 Y-22.5 E.08423
G1 X22.5 Y-22.5 E8.62501
G1 X22.5 Y22.5 E8.62501
G1 X-22.5 Y22.5 E8.62501
G1 X-22.5 Y-21.561 E8.44495
SET_VELOCITY_LIMIT ACCEL=7000 ACCEL_TO_DECEL=3500
G1 E-.8 F1800
G1 X-8.142 Y7.948 F21000
G1 E.8 F1800
SET_VELOCITY_LIMIT ACCEL=5000 ACCEL_TO_DECEL=2500
;TYPE:Internal solid infill
;WIDTH:4.27146
G1 F12000
G1 X-8.673 Y7.948 E.08692
G1 X-8.939 Y8.408 E.08692
G1 X-8.673 Y8.868 E.08692
M73 P2 R108
G1 X-8.142 Y8.868 E.08692
G1 X-8.127 Y8.841 E.00511
SET_VELOCITY_LIMIT ACCEL=7000 ACCEL_TO_DECEL=3500
G1 X12.283 Y1.616 F21000
SET_VELOCITY_LIMIT ACCEL=5000 ACCEL_TO_DECEL=2500
;WIDTH:5.24893
G1 F12000
G1 X.624 Y-10.043 E3.31828
G1 X-6.768 Y-10.043 E1.48779
G1 X10.043 Y6.768 E4.78471
G1 X10.043 Y10.043 E.65898
G1 X5.925 Y10.043 E.82881
G1 X-10.043 Y-5.925 E4.54453
G1 X-10.043 Y1.468 E1.48779
G1 X.772 Y12.283 E3.0781
SET_VELOCITY_LIMIT ACCEL=7000 ACCEL_TO_DECEL=3500
G1 X8.426 Y-8.621 F21000
SET_VELOCITY_LIMIT ACCEL=5000 ACCEL_TO_DECEL=2500
;WIDTH:4.27146
G1 F12000
G1 X7.895 Y-8.621 E.08692
G1 X7.629 Y-8.161 E.08692
G1 X7.895 Y-7.701 E.08692
G1 X8.426 Y-7.701 E.08692
G1 X8.442 Y-7.728 E.00511
; stop printing object SlicerTest.STEP id:0 copy 0
;LAYER_CHANGE
;Z:0.4
;HEIGHT:0.1
;START_LAYER_CHANGE
EXCLUDE_OBJECT_END NAME=SlicerTest.STEP_id_0_copy_0
;AFTER_LAYER_CHANGE
;0.4
;_SET_FAN_SPEED_CHANGING_LAYER
; printing object SlicerTest.STEP id:0 copy 0
SET_VELOCITY_LIMIT ACCEL=7000 ACCEL_TO_DECEL=3500
G1 E-.8 F1800
EXCLUDE_OBJECT_START NAME=SlicerTest.STEP_id_0_copy_0
G1 X11.602 Y-12.532 Z.4 F21000
G1 E.8 F1800
SET_VELOCITY_LIMIT ACCEL=5000 ACCEL_TO_DECEL=2500
;TYPE:Inner wall
;WIDTH:5
G1 F12000
G1 X12.532 Y-12.532 E.17837
G1 X12.532 Y12.532 E4.80401
G1 X-12.532 Y12.532 E4.80401
G1 X-12.532 Y-12.532 E4.80401
G1 X11.102 Y-12.532 E4.52981
SET_VELOCITY_LIMIT ACCEL=7000 ACCEL_TO_DECEL=3500
G1 E-.8 F1800
G1 X11.602 Y-17.511 F21000
G1 E.8 F1800
SET_VELOCITY_LIMIT ACCEL=5000 ACCEL_TO_DECEL=2500
G1 F12000
G1 X17.511 Y-17.511 E1.13259
G1 X17.511 Y17.511 E6.71245
G1 X-17.511 Y17.511 E6.71245
G1 X-17.511 Y-17.511 E6.71245
G1 X11.102 Y-17.511 E5.48403
SET_VELOCITY_LIMIT ACCEL=7000 ACCEL_TO_DECEL=3500
G1 E-.8 F1800
G1 X11.602 Y-22.5 F21000
G1 E.8 F1800
SET_VELOCITY_LIMIT ACCEL=3000 ACCEL_TO_DECEL=1500
;TYPE:Outer wall
G1 F7200
G1 X22.5 Y-22.5 E2.08887
G1 X22.5 Y22.5 E8.62501
G1 X-22.5 Y22.5 E8.62501
M73 P3 R108
G1 X-22.5 Y-22.5 E8.62501
G1 X11.102 Y-22.5 E6.4403
SET_VELOCITY_LIMIT ACCEL=7000 ACCEL_TO_DECEL=3500
G1 E-.8 F1800
G1 X12.283 Y-1.616 F21000
G1 E.8 F1800
SET_VELOCITY_LIMIT ACCEL=5000 ACCEL_TO_DECEL=2500
;TYPE:Internal solid infill
;WIDTH:5.24893
G1 F12000
G1 X.624 Y10.043 E3.31828
G1 X-6.768 Y10.043 E1.4878
G1 X10.043 Y-6.768 E4.78471
G1 X10.043 Y-10.043 E.65898
M73 P3 R107
G1 X5.925 Y-10.043 E.82881
G1 X-10.043 Y5.925 E4.54453
G1 X-10.043 Y-1.468 E1.4878
G1 X.772 Y-12.283 E3.0781
SET_VELOCITY_LIMIT ACCEL=7000 ACCEL_TO_DECEL=3500
G1 X-8.142 Y-8.868 F21000
SET_VELOCITY_LIMIT ACCEL=5000 ACCEL_TO_DECEL=2500
;WIDTH:4.27146
G1 F12000
G1 X-8.673 Y-8.868 E.08692
G1 X-8.939 Y-8.408 E.08692
G1 X-8.673 Y-7.948 E.08692
G1 X-8.142 Y-7.948 E.08692
G1 X-8.127 Y-7.975 E.00511
SET_VELOCITY_LIMIT ACCEL=7000 ACCEL_TO_DECEL=3500
G1 X8.426 Y7.701 F21000
SET_VELOCITY_LIMIT ACCEL=5000 ACCEL_TO_DECEL=2500
G1 F12000
G1 X7.895 Y7.701 E.08692
G1 X7.629 Y8.161 E.08692
G1 X7.895 Y8.621 E.08692
G1 X8.426 Y8.621 E.08692
G1 X8.442 Y8.594 E.00511
; stop printing object SlicerTest.STEP id:0 copy 0
;LAYER_CHANGE
;Z:0.5
;HEIGHT:0.1
;START_LAYER_CHANGE
EXCLUDE_OBJECT_END NAME=SlicerTest.STEP_id_0_copy_0
;AFTER_LAYER_CHANGE
;0.5
;_SET_FAN_SPEED_CHANGING_LAYER
; printing object SlicerTest.STEP id:0 copy 0
SET_VELOCITY_LIMIT ACCEL=7000 ACCEL_TO_DECEL=3500
G1 E-.8 F1800
EXCLUDE_OBJECT_START NAME=SlicerTest.STEP_id_0_copy_0
G1 X-12.532 Y-12.532 Z.5 F21000
G1 E.8 F1800
SET_VELOCITY_LIMIT ACCEL=5000 ACCEL_TO_DECEL=2500
;TYPE:Inner wall
;WIDTH:5
G1 F12000
G1 X12.532 Y-12.532 E4.80401
G1 X12.532 Y12.532 E4.80401
G1 X-12.532 Y12.532 E4.80401
G1 X-12.532 Y-12.032 E4.70818
SET_VELOCITY_LIMIT ACCEL=7000 ACCEL_TO_DECEL=3500
G1 E-.8 F1800
G1 X-17.511 Y-17.511 F21000
G1 E.8 F1800
SET_VELOCITY_LIMIT ACCEL=5000 ACCEL_TO_DECEL=2500
G1 F12000
G1 X17.511 Y-17.511 E6.71245
G1 X17.511 Y17.511 E6.71245
G1 X-17.511 Y17.511 E6.71245
G1 X-17.511 Y-17.011 E6.61662
SET_VELOCITY_LIMIT ACCEL=7000 ACCEL_TO_DECEL=3500
G1 E-.8 F1800
G1 X-22.5 Y-21.094 F21000
G1 E.8 F1800
SET_VELOCITY_LIMIT ACCEL=3000 ACCEL_TO_DECEL=1500
;TYPE:Outer wall
G1 F7200
G1 X-22.5 Y-22.5 E.26953
G1 X22.5 Y-22.5 E8.62501
G1 X22.5 Y22.5 E8.62501
G1 X-22.5 Y22.5 E8.62501
G1 X-22.5 Y-20.594 E8.25964
M73 P4 R107
SET_VELOCITY_LIMIT ACCEL=7000 ACCEL_TO_DECEL=3500
G1 E-.8 F1800
G1 X-8.142 Y7.948 F21000
G1 E.8 F1800
SET_VELOCITY_LIMIT ACCEL=5000 ACCEL_TO_DECEL=2500
;TYPE:Internal solid infill
;WIDTH:4.27146
G1 F12000
G1 X-8.673 Y7.948 E.08692
G1 X-8.939 Y8.408 E.08692
G1 X-8.673 Y8.868 E.08692
G1 X-8.142 Y8.868 E.08692
G1 X-8.127 Y8.841 E.00511
SET_VELOCITY_LIMIT ACCEL=7000 ACCEL_TO_DECEL=3500
G1 X12.283 Y1.616 F21000
SET_VELOCITY_LIMIT ACCEL=5000 ACCEL_TO_DECEL=2500
;WIDTH:5.24893
G1 F12000
G1 X.624 Y-10.043 E3.31828
G1 X-6.768 Y-10.043 E1.48779
M73 P4 R106
G1 X10.043 Y6.768 E4.78471
G1 X10.043 Y10.043 E.65898
G1 X5.925 Y10.043 E.82881
G1 X-10.043 Y-5.925 E4.54453
G1 X-10.043 Y1.468 E1.48779
G1 X.772 Y12.283 E3.0781
SET_VELOCITY_LIMIT ACCEL=7000 ACCEL_TO_DECEL=3500
G1 X8.426 Y-8.621 F21000
SET_VELOCITY_LIMIT ACCEL=5000 ACCEL_TO_DECEL=2500
;WIDTH:4.27146
G1 F12000
G1 X7.895 Y-8.621 E.08692
G1 X7.629 Y-8.161 E.08692
G1 X7.895 Y-7.701 E.08692
G1 X8.426 Y-7.701 E.08692
G1 X8.442 Y-7.728 E.00511
; stop printing object SlicerTest.STEP id:0 copy 0
;LAYER_CHANGE
;Z:0.6
;HEIGHT:0.1
;START_LAYER_CHANGE
EXCLUDE_OBJECT_END NAME=SlicerTest.STEP_id_0_copy_0
;AFTER_LAYER_CHANGE
;0.6
;_SET_FAN_SPEED_CHANGING_LAYER
; printing object SlicerTest.STEP id:0 copy 0
SET_VELOCITY_LIMIT ACCEL=7000 ACCEL_TO_DECEL=3500
G1 E-.8 F1800
EXCLUDE_OBJECT_START NAME=SlicerTest.STEP_id_0_copy_0
G1 X12.532 Y-12.532 Z.6 F21000
G1 E.8 F1800
SET_VELOCITY_LIMIT ACCEL=5000 ACCEL_TO_DECEL=2500
;TYPE:Inner wall
;WIDTH:5
G1 F12000
G1 X12.532 Y12.532 E4.80401
G1 X-12.532 Y12.532 E4.80401
G1 X-12.532 Y-12.532 E4.80401
G1 X12.032 Y-12.532 E4.70818
SET_VELOCITY_LIMIT ACCEL=7000 ACCEL_TO_DECEL=3500
G1 E-.8 F1800
G1 X17.511 Y-17.511 F21000
G1 E.8 F1800
SET_VELOCITY_LIMIT ACCEL=5000 ACCEL_TO_DECEL=2500
G1 F12000
G1 X17.511 Y17.511 E6.71245
G1 X-17.511 Y17.511 E6.71245
G1 X-17.511 Y-17.511 E6.71245
G1 X17.011 Y-17.511 E6.61662
SET_VELOCITY_LIMIT ACCEL=7000 ACCEL_TO_DECEL=3500
G1 E-.8 F1800
G1 X22.5 Y-21.797 F21000
G1 E.8 F1800
SET_VELOCITY_LIMIT ACCEL=3000 ACCEL_TO_DECEL=1500
;TYPE:Outer wall
G1 F7200
G1 X22.5 Y22.5 E8.49024
G1 X-22.5 Y22.5 E8.62501
G1 X-22.5 Y-22.5 E8.62501
G1 X22.5 Y-22.5 E8.62501
G1 X22.5 Y-22.297 E.03893
SET_VELOCITY_LIMIT ACCEL=7000 ACCEL_TO_DECEL=3500
G1 E-.8 F1800
G1 X12.283 Y-1.616 F21000
G1 E.8 F1800
SET_VELOCITY_LIMIT ACCEL=5000 ACCEL_TO_DECEL=2500
;TYPE:Internal solid infill
;WIDTH:5.24893
G1 F12000
G1 X.624 Y10.043 E3.31828
G1 X-6.768 Y10.043 E1.4878
M73 P5 R106
G1 X10.043 Y-6.768 E4.78471
G1 X10.043 Y-10.043 E.65898
G1 X5.925 Y-10.043 E.82881
G1 X-10.043 Y5.925 E4.54453
G1 X-10.043 Y-1.468 E1.4878
M73 P5 R105
G1 X.772 Y-12.283 E3.0781
SET_VELOCITY_LIMIT ACCEL=7000 ACCEL_TO_DECEL=3500
G1 X-8.142 Y-8.868 F21000
SET_VELOCITY_LIMIT ACCEL=5000 ACCEL_TO_DECEL=2500
;WIDTH:4.27146
G1 F12000
G1 X-8.673 Y-8.868 E.08692
G1 X-8.939 Y-8.408 E.08692
G1 X-8.673 Y-7.948 E.08692
G1 X-8.142 Y-7.948 E.08692
G1 X-8.127 Y-7.975 E.00511
SET_VELOCITY_LIMIT ACCEL=7000 ACCEL_TO_DECEL=3500
G1 X8.426 Y7.701 F21000
SET_VELOCITY_LIMIT ACCEL=5000 ACCEL_TO_DECEL=2500
G1 F12000
G1 X7.895 Y7.701 E.08692
G1 X7.629 Y8.161 E.08692
G1 X7.895 Y8.621 E.08692
G1 X8.426 Y8.621 E.08692
G1 X8.442 Y8.594 E.00511
; stop printing object SlicerTest.STEP id:0 copy 0
;LAYER_CHANGE
;Z:0.7
;HEIGHT:0.1
;START_LAYER_CHANGE
EXCLUDE_OBJECT_END NAME=SlicerTest.STEP_id_0_copy_0
;AFTER_LAYER_CHANGE
;0.7
;_SET_FAN_SPEED_CHANGING_LAYER
; printing object SlicerTest.STEP id:0 copy 0
SET_VELOCITY_LIMIT ACCEL=7000 ACCEL_TO_DECEL=3500
G1 E-.8 F1800
EXCLUDE_OBJECT_START NAME=SlicerTest.STEP_id_0_copy_0
G1 X12.532 Y-12.532 Z.7 F21000
G1 E.8 F1800
SET_VELOCITY_LIMIT ACCEL=5000 ACCEL_TO_DECEL=2500
;TYPE:Inner wall
;WIDTH:5
G1 F12000
G1 X12.532 Y12.532 E4.80401
G1 X-12.532 Y12.532 E4.80401
G1 X-12.532 Y-12.532 E4.80401
G1 X12.032 Y-12.532 E4.70818
SET_VELOCITY_LIMIT ACCEL=7000 ACCEL_TO_DECEL=3500
G1 E-.8 F1800
G1 X15.293 Y-17.511 F21000
G1 E.8 F1800
SET_VELOCITY_LIMIT ACCEL=5000 ACCEL_TO_DECEL=2500
G1 F12000
G1 X17.511 Y-17.511 E.42507
G1 X17.511 Y17.511 E6.71245
G1 X-17.511 Y17.511 E6.71245
G1 X-17.511 Y-17.511 E6.71245
G1 X14.793 Y-17.511 E6.19155
SET_VELOCITY_LIMIT ACCEL=7000 ACCEL_TO_DECEL=3500
G1 E-.8 F1800
G1 X15.293 Y-22.5 F21000
G1 E.8 F1800
SET_VELOCITY_LIMIT ACCEL=3000 ACCEL_TO_DECEL=1500
;TYPE:Outer wall
G1 F7200
G1 X22.5 Y-22.5 E1.38135
G1 X22.5 Y22.5 E8.62501
G1 X-22.5 Y22.5 E8.62501
G1 X-22.5 Y-22.5 E8.62501
G1 X14.793 Y-22.5 E7.14782
SET_VELOCITY_LIMIT ACCEL=7000 ACCEL_TO_DECEL=3500
G1 E-.8 F1800
G1 X8.426 Y-8.621 F21000
G1 E.8 F1800
SET_VELOCITY_LIMIT ACCEL=5000 ACCEL_TO_DECEL=2500
;TYPE:Internal solid infill
;WIDTH:4.27146
G1 F12000
G1 X7.895 Y-8.621 E.08692
G1 X7.629 Y-8.161 E.08692
G1 X7.895 Y-7.701 E.08692
G1 X8.426 Y-7.701 E.08692
G1 X8.442 Y-7.728 E.00511
SET_VELOCITY_LIMIT ACCEL=7000 ACCEL_TO_DECEL=3500
G1 X12.283 Y1.616 F21000
SET_VELOCITY_LIMIT ACCEL=5000 ACCEL_TO_DECEL=2500
;WIDTH:5.24893
G1 F12000
G1 X.624 Y-10.043 E3.31828
G1 X-6.768 Y-10.043 E1.48779
G1 X10.043 Y6.768 E4.78471
G1 X10.043 Y10.043 E.65898
G1 X5.925 Y10.043 E.82881
G1 X-10.043 Y-5.925 E4.54453
G1 X-10.043 Y1.468 E1.48779
G1 X.772 Y12.283 E3.0781
M73 P5 R104
SET_VELOCITY_LIMIT ACCEL=7000 ACCEL_TO_DECEL=3500
G1 X-8.142 Y7.948 F21000
SET_VELOCITY_LIMIT ACCEL=5000 ACCEL_TO_DECEL=2500
;WIDTH:4.27146
G1 F12000
G1 X-8.673 Y7.948 E.08692
G1 X-8.939 Y8.408 E.08692
G1 X-8.673 Y8.868 E.08692
G1 X-8.142 Y8.868 E.08692
G1 X-8.127 Y8.841 E.00511
; stop printing object SlicerTest.STEP id:0 copy 0
;LAYER_CHANGE
;Z:0.8
;HEIGHT:0.1
;START_LAYER_CHANGE
EXCLUDE_OBJECT_END NAME=SlicerTest.STEP_id_0_copy_0
;AFTER_LAYER_CHANGE
;0.8
;_SET_FAN_SPEED_CHANGING_LAYER
; printing object SlicerTest.STEP id:0 copy 0
SET_VELOCITY_LIMIT ACCEL=7000 ACCEL_TO_DECEL=3500
G1 E-.8 F1800
EXCLUDE_OBJECT_START NAME=SlicerTest.STEP_id_0_copy_0
G1 X12.532 Y-4.922 Z.8 F21000
G1 E.8 F1800
M73 P6 R104
SET_VELOCITY_LIMIT ACCEL=5000 ACCEL_TO_DECEL=2500
;TYPE:Inner wall
;WIDTH:5
G1 F12000
G1 X12.532 Y12.532 E3.34536
G1 X-12.532 Y12.532 E4.80401
G1 X-12.532 Y-12.532 E4.80401
G1 X12.532 Y-12.532 E4.80401
