; HEADER_BLOCK_START
; generated by OrcaSlicer 2.3.1 on 2026-01-27 at 12:41:03
; total layer number: 117
; filament_density: 8.02
; filament_diameter: 1.75
; max_z_height: 58.50
; HEADER_BLOCK_END

; external perimeters extrusion width = 5.00mm
; perimeters extrusion width = 5.00mm
; infill extrusion width = 5.00mm
; solid infill extrusion width = 5.00mm
; top infill extrusion width = 5.00mm
; first layer extrusion width = 5.00mm

; EXECUTABLE_BLOCK_START
EXCLUDE_OBJECT_DEFINE NAME=Cylinder_id_0_copy_0 CENTER=0,0 POLYGON=[[-20,0],[-19.9878,-0.697989],[-19.9513,-1.39513],[-19.8904,-2.09057],[-19.8054,-2.78346],[-19.6962,-3.47296],[-19.563,-4.15823],[-19.4059,-4.83844],[-19.2252,-5.51275],[-19.0211,-6.18034],[-18.7939,-6.8404],[-18.5437,-7.49213],[-18.2709,-8.13473],[-17.9759,-8.76742],[-17.659,-9.38943],[-17.3205,-10],[-16.961,-10.5984],[-16.5808,-11.1839],[-16.1803,-11.7557],[-15.7602,-12.3132],[-15.3209,-12.8558],[-14.8629,-13.3826],[-14.3868,-13.8932],[-13.8932,-14.3868],[-13.3826,-14.8629],[-12.8558,-15.3209],[-12.3132,-15.7602],[-11.7557,-16.1803],[-11.1839,-16.5808],[-10.5984,-16.961],[-10,-17.3205],[-9.38943,-17.659],[-8.76742,-17.9759],[-8.13473,-18.2709],[-7.49213,-18.5437],[-6.8404,-18.7939],[-6.18034,-19.0211],[-5.51275,-19.2252],[-4.83844,-19.4059],[-4.15823,-19.563],[-3.47297,-19.6962],[-2.78346,-19.8054],[-2.09057,-19.8904],[-1.39513,-19.9513],[-0.697989,-19.9878],[1e-06,-20],[0.697987,-19.9878],[1.39513,-19.9513],[2.09057,-19.8904],[2.78346,-19.8054],[3.47296,-19.6962],[4.15823,-19.563],[4.83844,-19.4059],[5.51275,-19.2252],[6.18034,-19.0211],[6.8404,-18.7939],[7.49213,-18.5437],[8.13473,-18.2709],[8.76742,-17.9759],[9.38943,-17.659],[10,-17.3205],[10.5984,-16.961],[11.1839,-16.5808],[11.7557,-16.1803],[12.3132,-15.7602],[12.8558,-15.3209],[13.3826,-14.8629],[13.8932,-14.3868],[14.3868,-13.8932],[14.8629,-13.3826],[15.3209,-12.8558],[15.7602,-12.3132],[16.1803,-11.7557],[16.5808,-11.1839],[16.961,-10.5984],[17.3205,-10],[17.659,-9.38943],[17.9759,-8.76742],[18.2709,-8.13473],[18.5437,-7.49213],[18.7939,-6.8404],[19.0211,-6.18034],[19.2252,-5.51274],[19.4059,-4.83844],[19.563,-4.15824],[19.6962,-3.47296],[19.8054,-2.78347],[19.8904,-2.09057],[19.9513,-1.39513],[19.9878,-0.697985],[20,0],[19.9878,0.697986],[19.9513,1.39513],[19.8904,2.09057],[19.8054,2.78347],[19.6962,3.47296],[19.563,4.15823],[19.4059,4.83844],[19.2252,5.51274],[19.0211,6.18034],[18.7939,6.8404],[18.5437,7.49213],[18.2709,8.13473],[17.9759,8.76742],[17.659,9.38943],[17.3205,10],[16.961,10.5984],[16.5808,11.1839],[16.1803,11.7557],[15.7602,12.3132],[15.3209,12.8558],[14.8629,13.3826],[14.3868,13.8932],[13.8932,14.3868],[13.3826,14.8629],[12.8558,15.3209],[12.3132,15.7602],[11.7557,16.1803],[11.1839,16.5808],[10.5984,16.961],[10,17.3205],[9.38943,17.659],[8.76742,17.9759],[8.13473,18.2709],[7.49213,18.5437],[6.84041,18.7938],[6.18034,19.0211],[5.51275,19.2252],[4.83843,19.4059],[4.15823,19.563],[3.47296,19.6962],[2.78346,19.8054],[2.09057,19.8904],[1.39513,19.9513],[0.697991,19.9878],[0,20],[-0.697989,19.9878],[-1.39513,19.9513],[-2.09057,19.8904],[-2.78346,19.8054],[-3.47296,19.6962],[-4.15823,19.563],[-4.83844,19.4059],[-5.51275,19.2252],[-6.18034,19.0211],[-6.8404,18.7939],[-7.49213,18.5437],[-8.13473,18.2709],[-8.76742,17.9759],[-9.38943,17.659],[-10,17.3205],[-10.5984,16.961],[-11.1839,16.5808],[-11.7557,16.1803],[-12.3132,15.7602],[-12.8558,15.3209],[-13.3826,14.8629],[-13.8932,14.3868],[-14.3868,13.8932],[-14.8629,13.3826],[-15.3209,12.8558],[-15.7602,12.3132],[-16.1803,11.7557],[-16.5808,11.1839],[-16.961,10.5984],[-17.3205,10],[-17.659,9.38943],[-17.9759,8.76742],[-18.2709,8.13473],[-18.5437,7.49213],[-18.7939,6.8404],[-19.0211,6.18034],[-19.2252,5.51275],[-19.4059,4.83844],[-19.563,4.15823],[-19.6962,3.47296],[-19.8054,2.78346],[-19.8904,2.09057],[-19.9513,1.39513],[-19.9878,0.697989],[-20,0]]
M73 P0 R74
;TYPE:Custom
G90
G21
M83 ; use relative distances for extrusion
; Filament gcode
M106 S0
;LAYER_CHANGE
;Z:0.5
;HEIGHT:0.5
;START_LAYER_CHANGE
;AFTER_LAYER_CHANGE
;0.5
;_SET_FAN_SPEED_CHANGING_LAYER
SET_VELOCITY_LIMIT ACCEL=500 ACCEL_TO_DECEL=250
; printing object Cylinder id:0 copy 0
G1 E-.8 F1800
EXCLUDE_OBJECT_START NAME=Cylinder_id_0_copy_0
G1 X-3.206 Y.208 F21000
G1 Z.5
G1 Z.5
G1 E.8 F1800
;TYPE:Inner wall
;WIDTH:5
G1 F3000
G1 X-3.002 Y.045 E.24525
G1 X-3.213 Y-.214 E.31485
G1 X-2.957 Y-.625 E.45647
G1 X-2.39 Y-.829 E.56719
G1 X-3.124 Y-1.549 E.96797
G1 X-2.881 Y-1.796 E.32679
G1 X-2.249 Y-1.754 E.5966
G1 X-2.594 Y-2.551 E.818
G1 X-1.143 Y-1.462 E1.70827
G1 X-1.878 Y-3.053 E1.65079
G1 X-.785 Y-1.727 E1.61886
G1 X-.706 Y-2.286 E.53202
G1 X-.481 Y-2.257 E.2138
G1 X-.403 Y-3.25 E.93871
G1 X-.027 Y-2.655 E.66335
G1 X.085 Y-1.744 E.86478
G1 X.739 Y-3.602 E1.85562
G1 X.761 Y-2.364 E1.1664
G1 X1.112 Y-2.535 E.36794
G1 X.865 Y-1.498 E1.00382
G1 X1.046 Y-1.386 E.20056
G1 X1.89 Y-1.926 E.94312
G1 X1.754 Y-1.419 E.4948
G1 X2.632 Y-1.71 E.87109
G1 X1.767 Y-.882 E1.12766
G1 X1.922 Y-.704 E.22222
G1 X2.289 Y-.55 E.37526
G1 X3.45 Y-.459 E1.09639
G1 X3.024 Y-.007 E.58481
G1 X2.215 Y.275 E.80719
G1 X2.596 Y.661 E.51081
G1 X2.866 Y1.036 E.43551
G1 X2.376 Y1.177 E.48051
G1 X2.232 Y1.413 E.26019
G1 X1.788 Y1.38 E.41951
G1 X1.348 Y1.18 E.45491
G1 X2.142 Y2.457 E1.4155
G1 X1.405 Y2.104 E.76925
G1 X1.59 Y3.168 E1.01653
G1 X.955 Y2.635 E.78101
G1 X.802 Y3.016 E.38733
G1 X.334 Y2.676 E.54447
G1 X.086 Y2.655 E.23437
G1 X-.16 Y2.356 E.36472
G1 X-.342 Y2.026 E.35507
G1 X-.695 Y2.444 E.51523
G1 X-1.319 Y3.373 E1.05403
G1 X-1.182 Y2.336 E.9845
G1 X-1.67 Y2.707 E.57731
G1 X-1.384 Y1.728 E.96088
G1 X-2.586 Y2.062 E1.17509
G1 X-3.098 Y2.034 E.48304
G1 X-1.827 Y.981 E1.5548
G1 X-3.371 Y1.331 E1.4918
G1 X-2.802 Y.717 E.78849
G1 X-3.508 Y.449 E.71138
G1 X-3.206 Y.208 E.36397
G1 E-.8 F1800
G1 X-2.281 Y6.443 F21000
G1 E.8 F1800
G1 F3000
G1 X-2.261 Y6.324 E.1138
G1 X-3.042 Y7.418 E1.26615
G1 X-2.802 Y6.052 E1.30584
G1 X-3.325 Y6.448 E.61712
G1 X-4.016 Y7.193 E.9576
G1 X-4.238 Y6.874 E.36581
G1 X-3.866 Y5.661 E1.19427
G1 X-4.097 Y5.542 E.2455
G1 X-4.611 Y5.851 E.56495
G1 X-5.256 Y6.145 E.66727
G1 X-5.346 Y5.838 E.30087
G1 X-4.721 Y4.761 E1.17325
G1 X-5.69 Y5.213 E1.00744
G1 X-5.488 Y4.668 E.54728
G1 X-5.624 Y4.35 E.32609
G1 X-6.641 Y4.349 E.95737
G1 X-6.964 Y4.097 E.3857
G1 X-5.956 Y3.169 E1.29053
G1 X-7.592 Y3.653 E1.60652
G1 X-7.37 Y3.172 E.49814
G1 X-6.713 Y2.531 E.86528
G1 X-6.464 Y2.099 E.4688
G1 X-7.46 Y2.02 E.94051
G1 X-7.62 Y1.766 E.2826
G1 X-6.758 Y1.283 E.93077
G1 X-7.766 Y1.179 E.95396
G1 X-7.473 Y.52 E.67891
G1 X-6.73 Y.224 E.75342
G1 X-7.591 Y-.128 E.87595
G1 X-7.417 Y-.427 E.3257
G1 X-7.674 Y-.77 E.40372
G1 X-7.117 Y-.98 E.56039
G1 X-6.531 Y-1.167 E.57994
G1 X-7.035 Y-1.46 E.54949
G1 X-8.126 Y-2.026 E1.15736
G1 X-7.005 Y-1.957 E1.05824
G1 X-7.76 Y-2.44 E.84395
G1 X-6.581 Y-2.433 E1.10996
G1 X-7.705 Y-3.262 E1.31516
G1 X-7.52 Y-3.517 E.2971
G1 X-7.35 Y-3.82 E.32679
G1 X-7.089 Y-4.052 E.32887
G1 X-5.742 Y-3.547 E1.35557
G1 X-7.135 Y-4.7 E1.70302
G1 X-5.735 Y-4.161 E1.412
G1 X-5.688 Y-4.525 E.34594
G1 X-6.297 Y-5.444 E1.03868
G1 X-5.234 Y-4.973 E1.0954
G1 X-4.602 Y-4.785 E.62134
G1 X-5.488 Y-6.214 E1.5836
G1 X-5.157 Y-6.297 E.3224
G1 X-4.633 Y-6.011 E.56205
G1 X-4.593 Y-6.56 E.51827
G1 X-4.404 Y-6.787 E.27765
G1 X-3.407 Y-5.872 E1.27392
G1 X-3.508 Y-6.534 E.6309
G1 X-3.156 Y-7.492 E.96098
G1 X-2.831 Y-7.476 E.30656
G1 X-2.397 Y-7.11 E.53449
G1 X-2.053 Y-7.152 E.32676
G1 X-1.655 Y-6.6 E.64082
G1 X-1.603 Y-7.934 E1.25768
G1 X-1.399 Y-8.424 E.50012
G1 X-.951 Y-7.414 E1.04056
G1 X-.572 Y-6.794 E.68467
G1 X-.36 Y-8.187 E1.32684
G1 X-.059 Y-7.233 E.94223
G1 X.281 Y-7.367 E.34355
G1 X.487 Y-8.18 E.78975
G1 X.718 Y-7.852 E.3783
G1 X1.153 Y-8.455 E.70063
G1 X1.194 Y-7.324 E1.06536
G1 X1.312 Y-6.647 E.64701
G1 X1.611 Y-6.56 E.29384
G1 X2.217 Y-7.607 E1.13947
G1 X2.271 Y-6.615 E.93598
G1 X2.851 Y-7.394 E.91517
G1 X3.249 Y-7.495 E.38697
G1 X3.257 Y-6.878 E.58151
G1 X3.325 Y-6.49 E.3705
G1 X3.723 Y-6.651 E.40462
G1 X3.556 Y-5.858 E.76368
G1 X3.864 Y-5.917 E.29467
G1 X4.987 Y-6.981 E1.45731
G1 X5.15 Y-6.653 E.34528
G1 X4.568 Y-5.433 E1.2724
G1 X5.002 Y-5.456 E.40877
G1 X5.163 Y-5.295 E.21432
G1 X4.923 Y-4.717 E.5891
G1 X5.104 Y-4.451 E.3034
G1 X6.134 Y-4.882 E1.05155
G1 X6.025 Y-4.432 E.43634
G1 X6.891 Y-4.594 E.82939
G1 X6.185 Y-3.857 E.96157
G1 X7.246 Y-4.092 E1.02342
G1 X7.124 Y-3.637 E.44296
G1 X6.374 Y-2.981 E.93887
G1 X7.548 Y-3.113 E1.11255
G1 X6.557 Y-2.422 E1.13781
G1 X8.119 Y-2.654 E1.48762
G1 X7.679 Y-2.294 E.53591
G1 X6.714 Y-1.63 E1.103
G1 X6.627 Y-1.383 E.24686
G1 X8.132 Y-1.39 E1.41739
G1 X7.246 Y-.917 E.94586
G1 X7.55 Y-.64 E.38786
G1 X6.891 Y-.015 E.8551
G1 X8.499 Y.318 E1.54636
G1 X7.161 Y.497 E1.27127
G1 X6.591 Y.725 E.57872
G1 X7.488 Y1.203 E.95727
G1 X7.839 Y1.627 E.51862
G1 X7.048 Y1.739 E.75241
G1 X7.7 Y2.145 E.72321
G1 X6.452 Y2.109 E1.17585
G1 X7.656 Y2.847 E1.33026
G1 X7.731 Y3.284 E.41705
G1 X6.678 Y3.088 E1.00884
G1 X7.247 Y3.639 E.74613
G1 X6.046 Y3.26 E1.18604
G1 X5.958 Y3.54 E.27645
G1 X6.935 Y4.558 E1.32863
G1 X5.929 Y4.305 E.97687
G1 X5.847 Y4.651 E.33527
G1 X5.218 Y4.472 E.61583
G1 X5.357 Y4.956 E.47427
G1 X5.116 Y5.086 E.25801
G1 X4.651 Y5.076 E.43796
G1 X4.617 Y5.538 E.43599
G1 X4.522 Y5.896 E.34887
G1 X3.994 Y5.77 E.51114
G1 X4.101 Y6.442 E.64162
G1 X4.129 Y6.967 E.49449
G1 X3.332 Y6.167 E1.0636
G1 X3.114 Y6.398 E.29925
G1 X3.297 Y7.572 E1.11991
G1 X2.482 Y6.164 E1.53259
G1 X2.761 Y7.668 E1.44013
G1 X2.069 Y6.406 E1.35493
G1 X2.107 Y7.747 E1.26347
G1 X1.64 Y7.34 E.58371
G1 X1.361 Y7.551 E.32873
G1 X.932 Y7.014 E.6472
G1 X.76 Y7.431 E.42526
G1 X.516 Y8.168 E.73073
G1 X.234 Y7.221 E.93039
G1 X-.009 Y7.592 E.41743
G1 X-.32 Y8.45 E.85886
G1 X-.525 Y7.106 E1.28043
G1 X-.894 Y7.83 E.76539
G1 X-1.186 Y7.477 E.43135
G1 X-1.516 Y7.6 E.33176
G1 X-1.792 Y7.279 E.39885
G1 X-1.938 Y6.834 E.44071
G1 X-2.498 Y7.775 E1.03171
G1 X-2.281 Y6.443 E1.27142
G1 E-.8 F1800
G1 X-2.767 Y11.541 F21000
G1 E.8 F1800
G1 F3000
G1 X-3.426 Y12.279 E.9315
G1 X-3.354 Y11.148 E1.06747
G1 X-3.945 Y12.168 E1.1106
G1 X-4.093 Y11.858 E.32325
G1 X-4.413 Y11.661 E.35385
G1 X-4.366 Y10.675 E.92972
G1 X-4.999 Y11.259 E.81134
G1 X-5.537 Y11.633 E.61764
G1 X-5.37 Y10.639 E.94934
G1 X-5.474 Y10.33 E.30724
G1 X-6.207 Y10.961 E.91132
G1 X-5.966 Y9.933 E.9951
G1 X-6.588 Y10.379 E.72099
G1 X-7.301 Y10.952 E.8615
G1 X-7.688 Y10.985 E.36605
G1 X-6.99 Y9.601 E1.46051
G1 X-7.491 Y9.711 E.48277
G1 X-7.445 Y9.225 E.45953
G1 X-8.592 Y10.204 E1.42074
G1 X-8.841 Y9.963 E.32686
G1 X-8.421 Y8.532 E1.40404
G1 X-8.761 Y8.423 E.33641
G1 X-9.444 Y8.64 E.67479
G1 X-9.637 Y7.97 E.65687
G1 X-10.472 Y8.272 E.83619
G1 X-9.813 Y7.425 E1.01089
G1 X-10.184 Y7.311 E.36549
G1 X-10.147 Y6.867 E.41908
G1 X-10.957 Y7.121 E.79961
G1 X-10.332 Y6.446 E.8662
G1 X-10.606 Y6.241 E.32187
G1 X-11.144 Y6.261 E.50722
G1 X-10.981 Y5.887 E.38363
G1 X-10.299 Y5.167 E.93394
G1 X-11.174 Y5.259 E.82802
G1 X-11.325 Y5.072 E.22647
G1 X-11.139 Y4.676 E.41181
G1 X-12.233 Y4.759 E1.03372
G1 X-12.335 Y4.468 E.29056
G1 X-11.278 Y3.751 E1.20248
G1 X-11.187 Y3.49 E.2602
G1 X-12.502 Y3.575 E1.24052
G1 X-11.138 Y2.932 E1.41934
G1 X-11.766 Y2.829 E.59893
G1 X-12.756 Y2.838 E.932
G1 X-11.736 Y2.284 E1.09326
G1 X-12.813 Y2.232 E1.01546
G1 X-12.123 Y1.88 E.72907
G1 X-13.264 Y1.715 E1.08615
G1 X-13.09 Y1.398 E.34091
G1 X-12.106 Y.935 E1.02413
G1 X-12.503 Y.729 E.42124
G1 X-11.498 Y.412 E.99278
G1 X-12.02 Y-.149 E.72208
G1 X-12.76 Y-.463 E.75732
G1 X-12.259 Y-.68 E.51417
G1 X-12.701 Y-1.06 E.54882
G1 X-12.263 Y-1.372 E.50684
G1 X-12.809 Y-1.707 E.60346
G1 X-11.852 Y-1.914 E.92276
G1 X-12.789 Y-2.444 E1.01422
G1 X-11.41 Y-2.411 E1.29965
G1 X-12.421 Y-2.964 E1.0856
G1 X-11.782 Y-3.181 E.63623
G1 X-12.161 Y-3.57 E.51163
G1 X-12.211 Y-3.85 E.26797
G1 X-11.763 Y-4.034 E.45589
G1 X-12.616 Y-4.651 E.99143
G1 X-11.797 Y-4.606 E.77244
G1 X-10.906 Y-4.624 E.83864
G1 X-11.29 Y-5.112 E.58468
G1 X-10.387 Y-5.049 E.85264
G1 X-11.279 Y-5.876 E1.1462
G1 X-10.347 Y-5.8 E.88157
G1 X-10.989 Y-6.493 E.89007
G1 X-10.238 Y-6.404 E.71154
G1 X-10.017 Y-6.692 E.34262
G1 X-10.193 Y-7.193 E.50009
G1 X-10.658 Y-7.9 E.79714
G1 X-10.036 Y-7.749 E.60285
G1 X-10.194 Y-8.294 E.53455
G1 X-9.96 Y-8.548 E.32522
G1 X-10.047 Y-8.976 E.41111
G1 X-8.411 Y-7.991 E1.79878
G1 X-9.217 Y-9.164 E1.34063
G1 X-8.558 Y-8.851 E.68687
G1 X-8.697 Y-9.348 E.48599
G1 X-7.954 Y-8.992 E.77644
G1 X-7.955 Y-9.475 E.45495
G1 X-7.351 Y-9.191 E.62815
G1 X-7.62 Y-10.014 E.81519
G1 X-7.7 Y-10.49 E.45469
G1 X-6.927 Y-9.829 E.95778
G1 X-7.372 Y-10.895 E1.08736
G1 X-7.076 Y-11.121 E.35043
G1 X-6.965 Y-11.51 E.38085
G1 X-6.399 Y-11.201 E.608
G1 X-5.995 Y-11.222 E.38112
G1 X-5.924 Y-11.62 E.38017
G1 X-5.769 Y-12.147 E.51759
G1 X-4.831 Y-10.872 E1.49076
G1 X-4.945 Y-11.814 E.89389
G1 X-4.511 Y-11.609 E.452
G1 X-4.196 Y-11.653 E.29996
G1 X-3.769 Y-11.474 E.43611
G1 X-3.565 Y-11.967 E.50189
G1 X-3.014 Y-11.274 E.83411
G1 X-2.537 Y-11.455 E.48057
G1 X-2.216 Y-11.34 E.3206
G1 X-2.118 Y-12.162 E.78007
G1 X-1.859 Y-12.738 E.59468
G1 X-1.532 Y-12.606 E.33176
G1 X-1.078 Y-11.689 E.9639
G1 X-.868 Y-12.7 E.97333
G1 X-.642 Y-13.353 E.65054
G1 X-.308 Y-12.423 E.93113
G1 X-.04 Y-11.557 E.85386
G1 X.292 Y-12.301 E.76736
G1 X.55 Y-12.938 E.64713
G1 X.81 Y-11.596 E1.28654
G1 X1.229 Y-12.969 E1.35145
G1 X1.405 Y-11.936 E.98694
G1 X1.799 Y-12.484 E.63588
G1 X1.909 Y-11.355 E1.06791
G1 X2.31 Y-11.847 E.59798
G1 X2.673 Y-12.406 E.62733
G1 X3.091 Y-12.942 E.6408
G1 X3.461 Y-12.989 E.3514
G1 X3.687 Y-12.34 E.64683
G1 X3.946 Y-12.391 E.24842
G1 X4.327 Y-12.336 E.36309
G1 X4.21 Y-11.344 E.94134
G1 X4.875 Y-12.229 E1.04231
G1 X4.595 Y-10.724 E1.44137
G1 X5.124 Y-11.263 E.71124
G1 X5.123 Y-10.566 E.6559
G1 X5.503 Y-10.575 E.35752
G1 X6.132 Y-11.147 E.80108
G1 X5.888 Y-10.159 E.959
G1 X7.01 Y-11.421 E1.59106
G1 X6.42 Y-10.033 E1.42081
G1 X6.51 Y-9.608 E.40894
G1 X7.27 Y-10.159 E.884
G1 X7.486 Y-9.99 E.25812
G1 X7.625 Y-9.711 E.2933
G1 X7.596 Y-9.224 E.46018
G1 X7.518 Y-8.761 E.44141
G1 X8.616 Y-9.638 E1.32348
G1 X8.798 Y-9.431 E.2598
G1 X9.348 Y-9.633 E.55275
G1 X9.406 Y-9.214 E.39825
G1 X9.86 Y-9.113 E.43855
G1 X9.492 Y-8.438 E.7244
G1 X9.776 Y-8.277 E.30822
G1 X10.288 Y-8.321 E.48376
G1 X9.681 Y-7.525 E.94287
G1 X10.06 Y-7.414 E.37223
G1 X10.805 Y-7.604 E.72348
G1 X9.946 Y-6.62 E1.22947
G1 X10.531 Y-6.652 E.55186
G1 X10.428 Y-6.308 E.33866
G1 X11.557 Y-6.526 E1.08323
G1 X11.854 Y-6.366 E.31768
G1 X10.525 Y-5.349 E1.57584
G1 X11.136 Y-5.261 E.5815
G1 X12.123 Y-5.304 E.92989
G1 X12.227 Y-5.098 E.21735
G1 X11.148 Y-4.281 E1.27484
G1 X12.704 Y-4.551 E1.48737
G1 X12.367 Y-4.133 E.5056
G1 X11.4 Y-3.194 E1.26969
G1 X12.246 Y-3.17 E.79721
G1 X12.463 Y-2.949 E.29115
G1 X11.775 Y-2.529 E.75994
G1 X11.724 Y-2.175 E.33674
G1 X12.887 Y-2.03 E1.10382
G1 X12.357 Y-1.696 E.58998
G1 X12.831 Y-1.515 E.47768
G1 X12.639 Y-1.147 E.3903
G1 X12.801 Y-.847 E.32101
G1 X13.42 Y-.605 E.62578
G1 X13.278 Y-.273 E.34002
G1 X11.577 Y-.011 E1.62086
G1 X13.362 Y.358 E1.71688
G1 X12.936 Y.689 E.50824
G1 X12.778 Y1.006 E.33319
G1 X11.588 Y1.215 E1.13796
G1 X12.192 Y1.645 E.69806
G1 X12.044 Y1.878 E.26084
G1 X11.771 Y2.088 E.32382
G1 X12.409 Y2.537 E.73468
G1 X12.591 Y2.95 E.42527
G1 X12.039 Y3.123 E.54554
G1 X12.806 Y3.654 E.87909
G1 X11.493 Y3.527 E1.24284
G1 X11.882 Y3.946 E.53854
G1 X12.176 Y4.389 E.50027
G1 X12.365 Y4.733 E.37056
G1 X11.44 Y4.775 E.87289
G1 X10.817 Y4.881 E.5947
G1 X11.904 Y5.718 E1.29185
G1 X10.593 Y5.336 E1.28584
G1 X10.957 Y5.813 E.56538
G1 X10.744 Y6.105 E.34074
G1 X10.175 Y6.378 E.594
G1 X10.3 Y6.758 E.37726
G1 X10.37 Y7.144 E.36872
G1 X9.495 Y6.91 E.8521
G1 X9.305 Y7.194 E.32174
G1 X9.089 Y7.283 E.21973
G1 X10.258 Y8.73 E1.75144
G1 X10.03 Y8.894 E.26425
G1 X9.737 Y9.174 E.38159
G1 X9.525 Y9.345 E.25664
G1 X8.286 Y8.508 E1.40797
G1 X8.563 Y9.367 E.84928
G1 X7.526 Y8.691 E1.16539
G1 X8.409 Y10.274 E1.70734
G1 X7.164 Y9.191 E1.55382
G1 X7.474 Y10.022 E.83454
G1 X7.145 Y10.101 E.31858
G1 X6.604 Y9.941 E.53122
G1 X6.741 Y10.569 E.60553
G1 X6.01 Y9.925 E.9177
G1 X6.147 Y10.802 E.83623
G1 X6.205 Y11.416 E.5809
G1 X6.085 Y11.764 E.3466
G1 X5.451 Y11.313 E.73222
G1 X5.468 Y12.104 E.74472
G1 X5.231 Y12.215 E.24612
