; HEADER_BLOCK_START
; generated by OrcaSlicer 2.3.1 on 2026-01-23 at 13:33:11
; total layer number: 117
; filament_density: 8.02
; filament_diameter: 1.75
; max_z_height: 58.50
; HEADER_BLOCK_END

; external perimeters extrusion width = 5.00mm
; perimeters extrusion width = 5.00mm
; infill extrusion width = 5.00mm
; solid infill extrusion width = 5.00mm
; top infill extrusion width = 5.00mm
; first layer extrusion width = 5.00mm

; EXECUTABLE_BLOCK_START
EXCLUDE_OBJECT_DEFINE NAME=Cylinder_id_0_copy_0 CENTER=0,0 POLYGON=[[-20,0],[-19.9878,-0.697989],[-19.9513,-1.39513],[-19.8904,-2.09057],[-19.8054,-2.78346],[-19.6962,-3.47296],[-19.563,-4.15823],[-19.4059,-4.83844],[-19.2252,-5.51275],[-19.0211,-6.18034],[-18.7939,-6.8404],[-18.5437,-7.49213],[-18.2709,-8.13473],[-17.9759,-8.76742],[-17.659,-9.38943],[-17.3205,-10],[-16.961,-10.5984],[-16.5808,-11.1839],[-16.1803,-11.7557],[-15.7602,-12.3132],[-15.3209,-12.8558],[-14.8629,-13.3826],[-14.3868,-13.8932],[-13.8932,-14.3868],[-13.3826,-14.8629],[-12.8558,-15.3209],[-12.3132,-15.7602],[-11.7557,-16.1803],[-11.1839,-16.5808],[-10.5984,-16.961],[-10,-17.3205],[-9.38943,-17.659],[-8.76742,-17.9759],[-8.13473,-18.2709],[-7.49213,-18.5437],[-6.8404,-18.7939],[-6.18034,-19.0211],[-5.51275,-19.2252],[-4.83844,-19.4059],[-4.15823,-19.563],[-3.47297,-19.6962],[-2.78346,-19.8054],[-2.09057,-19.8904],[-1.39513,-19.9513],[-0.697989,-19.9878],[1e-06,-20],[0.697987,-19.9878],[1.39513,-19.9513],[2.09057,-19.8904],[2.78346,-19.8054],[3.47296,-19.6962],[4.15823,-19.563],[4.83844,-19.4059],[5.51275,-19.2252],[6.18034,-19.0211],[6.8404,-18.7939],[7.49213,-18.5437],[8.13473,-18.2709],[8.76742,-17.9759],[9.38943,-17.659],[10,-17.3205],[10.5984,-16.961],[11.1839,-16.5808],[11.7557,-16.1803],[12.3132,-15.7602],[12.8558,-15.3209],[13.3826,-14.8629],[13.8932,-14.3868],[14.3868,-13.8932],[14.8629,-13.3826],[15.3209,-12.8558],[15.7602,-12.3132],[16.1803,-11.7557],[16.5808,-11.1839],[16.961,-10.5984],[17.3205,-10],[17.659,-9.38943],[17.9759,-8.76742],[18.2709,-8.13473],[18.5437,-7.49213],[18.7939,-6.8404],[19.0211,-6.18034],[19.2252,-5.51274],[19.4059,-4.83844],[19.563,-4.15824],[19.6962,-3.47296],[19.8054,-2.78347],[19.8904,-2.09057],[19.9513,-1.39513],[19.9878,-0.697985],[20,0],[19.9878,0.697986],[19.9513,1.39513],[19.8904,2.09057],[19.8054,2.78347],[19.6962,3.47296],[19.563,4.15823],[19.4059,4.83844],[19.2252,5.51274],[19.0211,6.18034],[18.7939,6.8404],[18.5437,7.49213],[18.2709,8.13473],[17.9759,8.76742],[17.659,9.38943],[17.3205,10],[16.961,10.5984],[16.5808,11.1839],[16.1803,11.7557],[15.7602,12.3132],[15.3209,12.8558],[14.8629,13.3826],[14.3868,13.8932],[13.8932,14.3868],[13.3826,14.8629],[12.8558,15.3209],[12.3132,15.7602],[11.7557,16.1803],[11.1839,16.5808],[10.5984,16.961],[10,17.3205],[9.38943,17.659],[8.76742,17.9759],[8.13473,18.2709],[7.49213,18.5437],[6.84041,18.7938],[6.18034,19.0211],[5.51275,19.2252],[4.83844,19.4059],[4.15823,19.563],[3.47296,19.6962],[2.78346,19.8054],[2.09057,19.8904],[1.39513,19.9513],[0.697991,19.9878],[0,20],[-0.697989,19.9878],[-1.39513,19.9513],[-2.09057,19.8904],[-2.78346,19.8054],[-3.47296,19.6962],[-4.15823,19.563],[-4.83844,19.4059],[-5.51275,19.2252],[-6.18034,19.0211],[-6.8404,18.7939],[-7.49213,18.5437],[-8.13473,18.2709],[-8.76742,17.9759],[-9.38943,17.659],[-10,17.3205],[-10.5984,16.961],[-11.1839,16.5808],[-11.7557,16.1803],[-12.3132,15.7602],[-12.8558,15.3209],[-13.3826,14.8629],[-13.8932,14.3868],[-14.3868,13.8932],[-14.8629,13.3826],[-15.3209,12.8558],[-15.7602,12.3132],[-16.1803,11.7557],[-16.5808,11.1839],[-16.961,10.5984],[-17.3205,10],[-17.659,9.38943],[-17.9759,8.76742],[-18.2709,8.13473],[-18.5437,7.49213],[-18.7939,6.8404],[-19.0211,6.18034],[-19.2252,5.51275],[-19.4059,4.83844],[-19.563,4.15823],[-19.6962,3.47296],[-19.8054,2.78346],[-19.8904,2.09057],[-19.9513,1.39513],[-19.9878,0.697989],[-20,0]]
M73 P0 R83
;TYPE:Custom
G90
G21
M83 ; use relative distances for extrusion
; Filament gcode
M106 S0
;LAYER_CHANGE
;Z:0.5
;HEIGHT:0.5
;START_LAYER_CHANGE
;AFTER_LAYER_CHANGE
;0.5
;_SET_FAN_SPEED_CHANGING_LAYER
SET_VELOCITY_LIMIT ACCEL=500 ACCEL_TO_DECEL=250
; printing object Cylinder id:0 copy 0
G1 E-.8 F1800
EXCLUDE_OBJECT_START NAME=Cylinder_id_0_copy_0
G1 X-1.095 Y2.27 F21000
G1 Z.5
G1 Z.5
G1 E.8 F1800
;TYPE:Inner wall
;WIDTH:5
G1 F3000
G1 X-.976 Y1.624 E.61902
G1 X-1.151 Y1.479 E.21375
G1 X-2.297 Y2.493 E1.44158
G1 X-2.37 Y1.978 E.49004
G1 X-3.01 Y1.993 E.60319
G1 X-1.99 Y.969 E1.36097
G1 X-2.447 Y.927 E.4316
G1 X-1.774 Y.502 E.74914
G1 X-1.739 Y.3 E.19308
G1 X-2.926 Y.047 E1.14258
G1 X-2.306 Y-.213 E.63307
G1 X-2.463 Y-.544 E.3447
G1 X-1.846 Y-.609 E.58448
G1 X-3.264 Y-1.601 E1.63009
G1 X-1.837 Y-1.204 E1.39511
G1 X-1.889 Y-1.466 E.25177
G1 X-2.559 Y-2.371 E1.06008
G1 X-1.576 Y-2.223 E.93617
G1 X-1.678 Y-2.997 E.73535
G1 X-1.268 Y-2.905 E.39586
G1 X-.87 Y-2.754 E.40097
G1 X-.439 Y-1.99 E.82605
G1 X-.244 Y-1.783 E.26795
G1 X-.003 Y-3.14 E1.29805
G1 X.127 Y-1.768 E1.29831
G1 X.539 Y-2.165 E.53864
G1 X.82 Y-2.243 E.27473
G1 X1.31 Y-2.568 E.55319
G1 X1.161 Y-1.717 E.81332
G1 X1.995 Y-2.396 E1.01316
G1 X1.891 Y-1.821 E.55049
G1 X2.513 Y-1.945 E.59696
G1 X2.525 Y-1.466 E.45108
G1 X2.914 Y-1.226 E.43075
G1 X2.813 Y-.858 E.35873
G1 X2.962 Y-.517 E.35058
G1 X2.758 Y-.235 E.3282
G1 X1.727 Y.054 E1.00923
G1 X3.359 Y.46 E1.58464
G1 X2.527 Y.583 E.79224
G1 X2.522 Y.946 E.3411
G1 X1.95 Y.95 E.5386
G1 X1.933 Y1.26 E.29229
G1 X2.092 Y1.646 E.39316
G1 X2.212 Y2.317 E.64205
G1 X1.48 Y1.925 E.78135
G1 X1.219 Y1.932 E.24637
G1 X.849 Y1.659 E.43241
G1 X1.037 Y2.638 E.93892
G1 X.549 Y2.132 E.6621
G1 X.39 Y2.461 E.34341
G1 X.179 Y2.686 E.29083
G1 X-.158 Y2.667 E.3184
G1 X-.558 Y1.714 E.97248
G1 X-1.136 Y2.495 E.91478
G1 X-1.095 Y2.27 E.21486
G1 E-.8 F1800
G1 X5.406 Y5.369 F21000
G1 E.8 F1800
G1 F3000
G1 X5.138 Y5.207 E.29488
G1 X4.455 Y4.879 E.71348
G1 X4.309 Y5.168 E.30562
G1 X4.096 Y5.225 E.20672
G1 X4.256 Y6.024 E.76755
G1 X3.624 Y5.706 E.66652
G1 X3.515 Y5.918 E.22465
G1 X3.603 Y6.528 E.58069
G1 X3.018 Y6.023 E.72827
G1 X3.188 Y7.079 E1.00762
G1 X2.885 Y7.225 E.31602
G1 X2.537 Y7.036 E.373
G1 X2.441 Y7.493 E.43949
G1 X2.277 Y7.817 E.34211
G1 X1.854 Y7.281 E.64312
G1 X1.749 Y8.288 E.95403
G1 X1.08 Y6.517 E1.78334
G1 X1.017 Y8.488 E1.85727
G1 X.51 Y7.437 E1.09869
G1 X.039 Y8.361 E.97629
G1 X-.332 Y7.395 E.9743
G1 X-.6 Y6.904 E.52713
G1 X-1.029 Y8.285 E1.36171
G1 X-1.287 Y7.395 E.87237
G1 X-1.573 Y7.246 E.30407
G1 X-1.874 Y6.973 E.38293
G1 X-2.298 Y7.368 E.54555
G1 X-2.658 Y7.327 E.34116
G1 X-2.742 Y6.754 E.54528
G1 X-3.126 Y6.745 E.36235
G1 X-3.184 Y6.359 E.36782
G1 X-3.668 Y6.719 E.56816
G1 X-3.653 Y6.086 E.59572
G1 X-4.153 Y6.435 E.57388
G1 X-4.636 Y6.688 E.51344
G1 X-4.595 Y6.104 E.55084
G1 X-4.691 Y5.807 E.2947
G1 X-5.611 Y6.409 E1.03622
G1 X-5.093 Y5.402 E1.06679
G1 X-5.291 Y5.141 E.30924
G1 X-5.719 Y5.108 E.40443
G1 X-6.615 Y5.409 E.89001
G1 X-6.513 Y4.849 E.53579
G1 X-7.13 Y4.786 E.58373
G1 X-5.734 Y3.578 E1.73835
G1 X-6.944 Y3.958 E1.19404
G1 X-7.293 Y3.736 E.38905
G1 X-6.949 Y3.154 E.63699
G1 X-7.654 Y3.071 E.66832
G1 X-6.556 Y2.359 E1.23236
G1 X-6.748 Y2.091 E.31093
G1 X-7.8 Y2.039 E.99225
G1 X-7.983 Y1.844 E.25097
G1 X-6.883 Y1.26 E1.17273
G1 X-8.326 Y1.215 E1.35939
G1 X-7.969 Y.866 E.47026
G1 X-8.295 Y.65 E.36811
G1 X-8.179 Y.355 E.29828
G1 X-8.482 Y-.026 E.45873
G1 X-7.418 Y-.25 E1.02436
G1 X-8.515 Y-.629 E1.09316
G1 X-7.795 Y-.842 E.70744
G1 X-7.227 Y-1.134 E.60063
G1 X-7.794 Y-1.569 E.67274
G1 X-7.364 Y-1.838 E.47723
G1 X-7.677 Y-2.288 E.51594
G1 X-6.466 Y-2.19 E1.1442
G1 X-6.302 Y-2.455 E.29333
G1 X-7.587 Y-3.329 E1.46409
G1 X-6.974 Y-3.436 E.58623
G1 X-6.891 Y-3.678 E.2415
G1 X-6.243 Y-3.617 E.6127
G1 X-6.87 Y-4.423 E.96148
G1 X-5.632 Y-3.901 E1.26494
G1 X-5.931 Y-4.478 E.61127
G1 X-6.175 Y-5.078 E.61016
G1 X-6.021 Y-5.27 E.23228
G1 X-6.12 Y-5.721 E.43556
G1 X-5.101 Y-5.129 E1.10986
G1 X-5.515 Y-5.992 E.90178
G1 X-4.755 Y-5.518 E.84359
G1 X-4.862 Y-6.066 E.52639
G1 X-4.109 Y-5.527 E.87284
G1 X-4.19 Y-6.138 E.58011
G1 X-4.498 Y-7.061 E.91626
G1 X-3.491 Y-6.052 E1.34199
G1 X-3.168 Y-5.926 E.326
G1 X-2.915 Y-6.051 E.2663
G1 X-2.964 Y-6.735 E.64557
G1 X-2.496 Y-6.155 E.7016
G1 X-2.19 Y-6.24 E.29897
G1 X-2.365 Y-7.661 E1.3488
G1 X-1.98 Y-7.687 E.36391
G1 X-1.504 Y-6.782 E.96249
G1 X-1.251 Y-6.651 E.26815
G1 X-1.02 Y-7.283 E.6342
G1 X-.795 Y-8.326 E1.00509
G1 X-.372 Y-7.105 E1.21688
G1 X-.109 Y-8.438 E1.27895
G1 X.136 Y-8.079 E.4085
G1 X.364 Y-8.521 E.46801
G1 X.435 Y-6.653 E1.76072
G1 X.783 Y-7.656 E1.00043
G1 X1.032 Y-7.322 E.39321
G1 X1.548 Y-8.135 E.90694
G1 X1.589 Y-6.927 E1.13861
G1 X2.055 Y-7.548 E.73126
G1 X2.142 Y-6.981 E.5403
G1 X2.673 Y-7.84 E.95044
G1 X2.425 Y-6.309 E1.46011
G1 X2.82 Y-6.631 E.47993
G1 X3.026 Y-6.484 E.23777
G1 X3.896 Y-7.589 E1.32468
G1 X3.219 Y-5.789 E1.81165
G1 X3.702 Y-6.125 E.55456
G1 X4.38 Y-6.761 E.87541
G1 X4.921 Y-7.051 E.57835
G1 X4.419 Y-5.864 E1.21345
G1 X4.17 Y-5.196 E.67179
G1 X4.862 Y-5.527 E.72237
G1 X5.005 Y-5.179 E.35384
G1 X6.21 Y-5.906 E1.32516
G1 X6.35 Y-5.657 E.26967
G1 X6.212 Y-5.038 E.59759
G1 X5.348 Y-3.955 E1.3044
G1 X6.833 Y-4.716 E1.57198
G1 X5.619 Y-3.605 E1.55003
G1 X7.089 Y-4.148 E1.4759
G1 X6.333 Y-3.368 E1.02293
G1 X7.142 Y-3.522 E.77536
G1 X6.149 Y-2.681 E1.22566
G1 X6.268 Y-2.37 E.31339
G1 X6.336 Y-2.101 E.26155
G1 X6.713 Y-1.853 E.42536
G1 X7.853 Y-1.929 E1.07565
G1 X8.06 Y-1.63 E.34233
G1 X7.49 Y-1.243 E.64972
G1 X7.855 Y-1.019 E.40355
G1 X8.553 Y-.874 E.67119
G1 X7.971 Y-.478 E.66243
G1 X6.635 Y-.098 E1.30798
G1 X8.451 Y.185 E1.73079
G1 X7.594 Y.421 E.8373
G1 X7.475 Y.754 E.33245
G1 X7.375 Y.971 E.22567
G1 X7.596 Y1.343 E.40748
G1 X8.024 Y1.722 E.53792
G1 X7.088 Y1.762 E.8817
G1 X6.685 Y1.93 E.41071
G1 X6.263 Y2.133 E.44124
G1 X7.8 Y3.002 E1.66289
G1 X7.846 Y3.376 E.35413
G1 X7.458 Y3.564 E.40597
G1 X7.363 Y3.83 E.26555
G1 X6.615 Y3.796 E.70505
G1 X7.002 Y4.333 E.62367
G1 X6.311 Y4.36 E.65154
G1 X6.345 Y4.808 E.42343
G1 X5.675 Y4.592 E.66308
G1 X6.182 Y5.501 E.98067
G1 X6.169 Y5.83 E.30942
G1 X5.406 Y5.369 E.83941
G1 E-.8 F1800
G1 X11.727 Y4.014 F21000
G1 E.8 F1800
G1 F3000
G1 X11.134 Y4.093 E.56341
G1 X11.491 Y4.575 E.56489
G1 X12.335 Y5.28 E1.03564
G1 X11.539 Y5.33 E.75046
G1 X10.615 Y5.282 E.87203
G1 X11.427 Y5.972 E1.00371
G1 X10.229 Y5.607 E1.17935
G1 X10.558 Y6.055 E.52325
G1 X9.896 Y5.941 E.63209
G1 X11.334 Y7.183 E1.78947
G1 X10.413 Y6.888 E.91126
G1 X10.395 Y7.258 E.34904
G1 X10.131 Y7.377 E.27306
G1 X9.637 Y7.367 E.46474
G1 X9.656 Y7.842 E.44777
G1 X9.317 Y7.886 E.32161
G1 X9.247 Y8.277 E.37382
G1 X9.436 Y8.959 E.66688
G1 X8.557 Y8.487 E.93929
G1 X8.634 Y9.305 E.77355
G1 X8.224 Y9.254 E.38947
G1 X8.657 Y10.072 E.87212
G1 X7.865 Y9.675 E.83539
G1 X7.119 Y9.134 E.86709
G1 X7.183 Y9.755 E.58716
G1 X6.654 Y9.532 E.54066
G1 X7.299 Y10.977 E1.49042
G1 X6.129 Y9.753 E1.59512
G1 X6.429 Y10.861 E1.08178
G1 X5.777 Y10.417 E.74336
G1 X5.447 Y10.456 E.31305
G1 X5.857 Y11.791 E1.31475
G1 X5.554 Y12.074 E.39071
G1 X4.783 Y11.119 E1.15591
G1 X4.799 Y11.809 E.6508
G1 X4.338 Y11.332 E.62542
G1 X4.009 Y11.459 E.33188
G1 X3.867 Y11.843 E.38588
G1 X3.689 Y12.538 E.67596
G1 X3.457 Y12.658 E.24632
G1 X2.923 Y11.86 E.90431
G1 X2.588 Y11.866 E.31583
G1 X2.5 Y12.763 E.84923
G1 X2.022 Y11.841 E.97846
G1 X1.786 Y12.292 E.47949
G1 X1.604 Y12.876 E.57642
G1 X1.121 Y11.55 E1.32962
G1 X.952 Y13.308 E1.66381
G1 X.564 Y13.439 E.38582
G1 X.218 Y12.54 E.90702
G1 X-.097 Y13.303 E.77708
G1 X-.426 Y13.32 E.30965
G1 X-.64 Y12.446 E.84721
G1 X-.98 Y12.9 E.53373
G1 X-1.311 Y12.894 E.31191
G1 X-1.709 Y13.109 E.42616
G1 X-1.938 Y12.623 E.50562
G1 X-2.41 Y13.258 E.74527
G1 X-2.409 Y11.448 E1.70536
G1 X-2.912 Y12.209 E.85906
G1 X-2.983 Y11.35 E.81158
G1 X-3.544 Y12.469 E1.1789
G1 X-3.864 Y12.397 E.30952
G1 X-4.397 Y12.748 E.6009
G1 X-4.598 Y12.469 E.32358
G1 X-4.683 Y12.062 E.39157
G1 X-4.787 Y11.395 E.63554
G1 X-5.508 Y12.143 E.97821
G1 X-5.831 Y12.09 E.30849
G1 X-6.033 Y11.853 E.29362
G1 X-6.175 Y11.407 E.44049
G1 X-5.979 Y10.363 E1.00028
G1 X-6.905 Y10.837 E.98003
G1 X-7.38 Y11.003 E.47374
G1 X-7.681 Y10.907 E.29758
G1 X-7.63 Y10.207 E.66155
G1 X-7.363 Y9.473 E.73497
G1 X-7.274 Y8.92 E.52757
G1 X-7.861 Y9.291 E.65431
G1 X-8.309 Y9.389 E.43147
G1 X-7.892 Y8.606 E.83512
G1 X-8.482 Y8.789 E.58204
G1 X-9.187 Y9.049 E.70784
G1 X-8.616 Y8.177 E.98209
G1 X-9.937 Y8.988 E1.45964
G1 X-9.866 Y8.446 E.5148
G1 X-10.355 Y8.448 E.46031
G1 X-10.661 Y8.231 E.35291
G1 X-10.307 Y7.613 E.67045
G1 X-10.792 Y7.583 E.45721
G1 X-10.154 Y6.718 E1.01151
G1 X-9.965 Y6.31 E.42344
G1 X-10.183 Y6.066 E.3087
G1 X-11.033 Y6.182 E.8083
G1 X-11.803 Y6.215 E.72592
G1 X-11.869 Y5.931 E.27454
G1 X-11.192 Y5.306 E.86788
G1 X-11.843 Y5.296 E.61306
G1 X-12.313 Y5.226 E.447
G1 X-11.131 Y4.484 E1.31446
G1 X-12.291 Y4.611 E1.09935
G1 X-12.189 Y4.283 E.32378
G1 X-12.722 Y4.081 E.53672
G1 X-12.687 Y3.734 E.32803
G1 X-12.939 Y3.373 E.41498
G1 X-12.137 Y2.838 E.9078
G1 X-13.169 Y2.689 E.98192
G1 X-12.315 Y2.217 E.91873
G1 X-11.456 Y1.779 E.90854
G1 X-12.135 Y1.605 E.65987
G1 X-11.598 Y1.224 E.61939
G1 X-12.101 Y.905 E.56136
G1 X-13.189 Y.674 E1.04765
G1 X-12.795 Y.322 E.49793
G1 X-13.014 Y-.061 E.41566
G1 X-11.927 Y-.337 E1.0563
G1 X-12.778 Y-.638 E.84998
G1 X-12.778 Y-.873 E.22141
G1 X-11.49 Y-1.144 E1.2405
G1 X-12.399 Y-1.522 E.92709
G1 X-12.928 Y-1.951 E.64178
G1 X-12.721 Y-2.181 E.29222
G1 X-13.052 Y-2.56 E.4738
G1 X-12.913 Y-2.899 E.34577
G1 X-12.909 Y-3.222 E.30352
G1 X-12.806 Y-3.521 E.29834
G1 X-11.738 Y-3.499 E1.00643
G1 X-11.706 Y-3.822 E.30586
G1 X-10.922 Y-3.841 E.73876
G1 X-12.033 Y-4.512 E1.22296
G1 X-11.182 Y-4.47 E.80309
G1 X-10.911 Y-4.595 E.281
G1 X-12.078 Y-5.434 E1.35337
G1 X-10.638 Y-5.145 E1.38247
G1 X-11.042 Y-5.654 E.61172
G1 X-11.678 Y-6.367 E.89982
G1 X-10.669 Y-6.09 E.98546
G1 X-10.947 Y-6.608 E.55353
G1 X-11.413 Y-7.204 E.71236
G1 X-11.194 Y-7.481 E.33319
G1 X-10.62 Y-7.455 E.54094
G1 X-9.495 Y-7.089 E1.11381
G1 X-9.266 Y-7.226 E.25117
G1 X-10.258 Y-8.499 E1.52089
G1 X-8.713 Y-7.649 E1.66152
G1 X-9.813 Y-9.127 E1.73547
G1 X-9.079 Y-8.774 E.7666
G1 X-8.609 Y-8.717 E.44592
G1 X-8.286 Y-8.788 E.31179
G1 X-8.232 Y-9.206 E.39767
G1 X-7.725 Y-9.082 E.49244
G1 X-8.246 Y-10.133 E1.10471
G1 X-7.139 Y-9.274 E1.31909
G1 X-6.881 Y-9.553 E.35773
G1 X-7.365 Y-10.669 E1.1465
G1 X-6.771 Y-10.273 E.67249
G1 X-7.199 Y-11.346 E1.0873
G1 X-6.11 Y-10.244 E1.45889
G1 X-6.578 Y-11.641 E1.3876
G1 X-5.898 Y-11.195 E.76589
G1 X-5.395 Y-10.908 E.54573
G1 X-5.287 Y-11.186 E.28088
G1 X-5.431 Y-12.117 E.88748
G1 X-4.522 Y-10.827 E1.48591
G1 X-4.505 Y-11.364 E.50573
G1 X-4.645 Y-12.503 E1.08107
G1 X-3.882 Y-11.082 E1.51972
G1 X-3.913 Y-12.288 E1.13697
G1 X-3.659 Y-12.702 E.45762
G1 X-3.013 Y-11.406 E1.3641
G1 X-2.974 Y-12.196 E.74482
G1 X-2.837 Y-13.1 E.86128
G1 X-2.287 Y-11.967 E1.18619
G1 X-1.972 Y-11.365 E.64001
G1 X-1.771 Y-11.962 E.59393
G1 X-1.547 Y-12.037 E.22228
G1 X-1.283 Y-12.062 E.2494
G1 X-1.038 Y-11.846 E.30706
G1 X-.846 Y-12.965 E1.0695
G1 X-.489 Y-12.231 E.769
G1 X-.205 Y-12.413 E.31825
G1 X.096 Y-11.786 E.65546
G1 X.386 Y-12.748 E.94647
G1 X.589 Y-12.175 E.57302
G1 X.793 Y-11.53 E.6372
G1 X1.136 Y-12.101 E.62699
G1 X1.401 Y-12.404 E.37968
G1 X1.712 Y-12.696 E.40191
G1 X2.072 Y-13.193 E.5778
G1 X2.382 Y-13.171 E.29284
G1 X2.424 Y-11.818 E1.27561
G1 X2.635 Y-11.435 E.41173
G1 X3.155 Y-12.235 E.89851
G1 X3.335 Y-11.598 E.6228
G1 X3.565 Y-11.45 E.25804
G1 X3.943 Y-11.771 E.46761
G1 X4.137 Y-11.532 E.29
G1 X4.477 Y-11.422 E.33703
G1 X5.086 Y-11.938 E.75107
G1 X5.559 Y-12.029 E.45362
G1 X5.516 Y-11.384 E.60903
G1 X5.557 Y-10.824 E.52834
G1 X6.346 Y-11.635 E1.06571
G1 X6.617 Y-11.381 E.35026
G1 X6.936 Y-11.183 E.35309
G1 X6.731 Y-10.195 E.95065
G1 X7.546 Y-10.875 E1.00031
G1 X6.867 Y-9.467 E1.47187
G1 X7.073 Y-9.308 E.24466
G1 X7.71 Y-9.713 E.71057
G1 X8.336 Y-9.906 E.6172
G1 X7.808 Y-8.766 E1.18346
G1 X8.854 Y-9.498 E1.20254
G1 X8.125 Y-8.326 E1.29974
G1 X9.098 Y-8.922 E1.07467
G1 X8.878 Y-8.289 E.63074
G1 X9.838 Y-8.773 E1.01245
G1 X10.099 Y-8.521 E.34203
G1 X9.121 Y-7.358 E1.43051
G1 X9.857 Y-7.611 E.73312
G1 X10.11 Y-7.519 E.25362
G1 X10.515 Y-7.457 E.38589
G1 X10.8 Y-7.301 E.30565
G1 X10.755 Y-6.936 E.34662
